X:19
T: Tiny's Rag
C: Tiny Moore
S: MandoZine TablEdit Archives
Z: TablEdited by John Davis for MandoZine
L: 1/8
Q: 480
M: 4/4
K: G
"G"D2 E2 G2 A2 | "B7"Bc zB z3A | "Em"GF EF "A7"G2 A2 | "B7"B7B | "C"cB ce "C#dim"ga ge |
"G"d^c =cB "E7"z3B | "A7"^c=c ^cd ef ge | "D7"f=f ed z4 | "G"D2 E2 G2 A2 | "B7"Bc zB z3A |
"C"GE GE AG E2 | "G"D6 D^D | "C"EG AG "C#dim"^DG AG | "G"Bd ed "E7"fe zB | "Am7"cg ec B"D7"d BD |
"G"G2 G,2 [g4B4] | "B7"BB B^c ^dB cd | "Em"ef zg z3g | "B7"f=f ^fg af ^df | "Em"e3e z4 |
"A7"A^G AB ^cA Bc | "D"d^c de f3f | "A7"ef gf ed ^cA | "D7"dd ^c=c =z4 | "G"D2 E2 G2 A2 |
"B7"Bc zB z3A | "C"GE GE AG E2 | "G"D6 D^D | "C"EG AG "C#dim"^AG =AG | "G"Bd ed "E7"fe zB |
"Am7"cg ec "D7"Bd BD | "G"G2 G,2 [g4B4] | d2 BA GA B2 | "B7"^d2 cB z3d | "Em"e^d ef "A"gf ga |
"B7"ee ee e3^d | "C"e^d eg ^ag e^c | "G"d^c =cB "E7"fe dB | "A7"AB ^cd ef ga | "D7"f=f ed z2 (3DFA |
"G"Bc df ag ed | "B7"^de fg a2 (3fed | "C"ec GE "C#dim"G^A ^ce | "G"dB AG "G7"=FD A,B, |
"C"CE Gc "C#dim"^AG E^C | "G"DE GB "E7"d^c =cB | "Am7"cB AB "D7"cd fb | "G"g4 (3fed (3BAG |
"B7"FB2F ^dc BA | "Em"GA BG E3G | "B7"FA ^ce ^dc BA | "Em"G2 (3EFG EB, A,G, | "A"A,B, ^CE ^cB AG |
"D"FA FD zE FA | "A7"GF GA B^c eg | "D7"fe d^c =c4 | "G"B2 dB dd AG | "B7"FE ^DF AB (3^dfb |
"C"ge dc "C#dim"^ag e^c | "G"dB AG "G7"=FD (3A,^A,B, | "C"CD ^DE "C#dim"GE G^A |
"G"B^A =AG "E7"d^c =cB | "A7"cB AG "D7"FA cd | "G"BG z6 | BF GA Bc dB | "B7"^d2 (3c^c=c B^c dB |
"Em"ef ge "A7"af e^c | "B7"B3B ^df dB | "C"cA GE "C#dim"^CE G^A | "G"Bc ^cd "E7"e^g ^zf |
"A7"ed ^cb gf ec | "D7"cB AE FA2d | "G"(3BcB dB G3B | "B7"(3ABA Bc ^df zd | "C"eg ag "C#dim"^ag2f |
"G"g2 dc "G7"BA G=F | "C"EB, CD "C#dim"EF G^A | "G"Bd BG "E7"FE ^GB | "Am7"ce gb "D7"af ed |
"G"gd fg z2 fg | "B7"af ^df cB ba | "Em"ga bg ed BG | "B7"F=F ^FG Ac BA | "Em"(3GFG (3B^AB eB zd |
"A"^c2 (3BcB AF E^C | "D"DA, DE FG Ad | "A7"^cd ef gA ag | "D7"fe d^c =c3d | "G"(3^ABd (3ABd B=A AB |
"B7"AG FE ^DF AB | "C"cc ec "C#dim"^ce c^A | "G"BA GE "G7"=Fd zd | "C"c2 GE "C#dim"^CE GE |
"G"(3DEG (3ABd "E7"eB2d | "Am7"cA ce "D7"dc AF | "G"G2 G,2 [g4B4D4] |
